img/icons/localizacao-vermelho.svg

<svg width="20" height="20" viewBox="0 0 20 20" fill="none" xmlns="http://www.w3.org/2000/svg">
<path d="M10.0002 9.99996C10.4585 9.99996 10.8509 9.83676 11.1772 9.51038C11.5036 9.18399 11.6668 8.79163 11.6668 8.33329C11.6668 7.87496 11.5036 7.4826 11.1772 7.15621C10.8509 6.82982 10.4585 6.66663 10.0002 6.66663C9.54183 6.66663 9.14947 6.82982 8.82308 7.15621C8.49669 7.4826 8.3335 7.87496 8.3335 8.33329C8.3335 8.79163 8.49669 9.18399 8.82308 9.51038C9.14947 9.83676 9.54183 9.99996 10.0002 9.99996ZM10.0002 16.125C11.6946 14.5694 12.9516 13.1562 13.771 11.8854C14.5904 10.6145 15.0002 9.48607 15.0002 8.49996C15.0002 6.98607 14.5175 5.74649 13.5522 4.78121C12.587 3.81593 11.4029 3.33329 10.0002 3.33329C8.59738 3.33329 7.41336 3.81593 6.44808 4.78121C5.4828 5.74649 5.00016 6.98607 5.00016 8.49996C5.00016 9.48607 5.40988 10.6145 6.22933 11.8854C7.04877 13.1562 8.30572 14.5694 10.0002 16.125ZM10.0002 18.3333C7.76405 16.4305 6.09391 14.6632 4.98975 13.0312C3.88558 11.3993 3.3335 9.88885 3.3335 8.49996C3.3335 6.41663 4.00363 4.7569 5.34391 3.52079C6.68419 2.28468 8.23627 1.66663 10.0002 1.66663C11.7641 1.66663 13.3161 2.28468 14.6564 3.52079C15.9967 4.7569 16.6668 6.41663 16.6668 8.49996C16.6668 9.88885 16.1147 11.3993 15.0106 13.0312C13.9064 14.6632 12.2363 16.4305 10.0002 18.3333Z" fill="#A60303"/>
</svg>

<svg width="20" height="20" fill="none" xmlns="http://www.w3.org/2000/svg"><path d="M10 10c.459 0 .85-.163 1.177-.49.327-.326.49-.718.49-1.177 0-.458-.163-.85-.49-1.177A1.605 1.605 0 0 0 10 6.666c-.458 0-.85.164-1.177.49-.326.327-.49.719-.49 1.177 0 .459.164.851.49 1.177.326.327.719.49 1.177.49Zm0 6.125c1.695-1.556 2.952-2.969 3.771-4.24.82-1.27 1.23-2.399 1.23-3.385 0-1.514-.483-2.754-1.449-3.719-.965-.965-2.15-1.448-3.552-1.448-1.403 0-2.587.483-3.552 1.448C5.483 5.746 5 6.986 5 8.5c0 .986.41 2.114 1.23 3.385.819 1.271 2.076 2.684 3.77 4.24Zm0 2.208c-2.236-1.902-3.906-3.67-5.01-5.302C3.886 11.4 3.333 9.89 3.333 8.5c0-2.083.67-3.743 2.01-4.98C6.685 2.286 8.237 1.668 10 1.668c1.764 0 3.316.618 4.656 1.854 1.34 1.236 2.01 2.896 2.01 4.979 0 1.389-.551 2.9-1.655 4.531-1.105 1.632-2.775 3.4-5.01 5.302Z" fill="#C00000"/></svg>
